icons/desktop/20/memories-slash-20.svg

<svg width="20" height="20" viewBox="0 0 20 20" fill="none" xmlns="http://www.w3.org/2000/svg">
<g clip-path="url(#clip0_13876_778)">
<path fill-rule="evenodd" clip-rule="evenodd" d="M0.255994 0.255994C0.596994 -0.0850058 1.15228 -0.0850058 1.49428 0.255994L6.98646 5.74916L6.92787 5.89857L5.99623 6.26869C5.77123 6.35769 5.56788 6.47916 5.38588 6.62416L3.02162 4.2599C3.00693 4.34066 3.00013 4.42399 3.00013 4.50892V14.4035C3.27997 14.3036 3.58188 14.2492 3.89467 14.2492H13.0089L11.3566 12.5968C11.4975 12.4169 11.6172 12.2152 11.7042 11.9933L12.1027 11.0412L12.2277 10.9913L19.7443 18.506L19.7433 18.507C20.084 18.849 20.0842 19.4033 19.7433 19.7453C19.5724 19.9162 19.3471 20.001 19.1242 20.0011C18.9013 20.0011 18.676 19.9161 18.505 19.7453L17.8058 19.046C17.6981 19.135 17.568 19.2002 17.421 19.2296C15.008 19.7156 12.5345 19.9742 10.0695 19.9982C9.94362 20.0002 9.81837 20.0001 9.69252 20.0001C7.60672 20.0001 5.5129 19.833 3.4601 19.504C2.1791 19.297 1.24916 18.1997 1.24916 16.8927V4.50892C1.24916 3.92932 1.40622 3.38716 1.68275 2.92201L0.255994 1.49525C-0.0850059 1.15325 -0.0850058 0.597994 0.255994 0.255994ZM14.6251 15.9972H3.89467C3.40083 15.9973 3.00022 16.3989 3.00013 16.8917C3.00013 17.3347 3.31039 17.7065 3.73939 17.7745C5.81725 18.1095 7.95802 18.2722 10.0529 18.2482C11.7707 18.2312 13.4926 18.0929 15.1935 17.841V16.4337L14.7521 15.9923C14.71 15.9944 14.6678 15.9972 14.6251 15.9972Z" fill="black"/>
<path d="M4.68763 1.33021C8.13763 0.884213 11.6609 0.901103 15.0949 1.4181C16.6078 1.6461 17.7501 2.97589 17.7501 4.51185V12.8732C17.7501 13.3181 17.6457 13.7344 17.4747 14.1163L16.0001 12.6408V4.51088C16.0001 3.83496 15.499 3.24767 14.8341 3.1476C13.0722 2.88261 11.2781 2.74819 9.50013 2.74818C8.42513 2.74818 7.34567 2.81424 6.26967 2.91224L4.68763 1.33021Z" fill="black"/>
<path d="M8.69252 5.50404C8.97952 4.77004 10.0188 4.77004 10.3058 5.50404L10.8917 7.00209L12.4513 7.66322C12.785 7.79631 13.0001 8.11395 13.0001 8.47572C13.0001 8.83763 12.7852 9.15614 12.4503 9.2892L10.964 9.87904L10.3068 11.4464C10.1758 11.7824 9.85904 12 9.50013 12.0001C9.14113 12.0001 8.82352 11.7824 8.69252 11.4474L8.10658 9.95033L6.54799 9.2892C6.21399 9.1562 5.99916 8.83772 5.99916 8.47572C5.99922 8.11381 6.21405 7.79622 6.54896 7.66322L8.03529 7.0724L8.10658 7.00209L8.69252 5.50404Z" fill="black"/>
</g>
<defs>
<clipPath id="clip0_13876_778">
<rect width="20" height="20" fill="white"/>
</clipPath>
</defs>
</svg>

<!-- This Source Code Form is subject to the terms of the Mozilla Public
   - License, v. 2.0. If a copy of the MPL was not distributed with this
   - file, You can obtain one at http://mozilla.org/MPL/2.0/. -->
<svg xmlns="http://www.w3.org/2000/svg" width="20" height="20" fill="context-fill" fill-opacity="context-fill-opacity" viewBox="0 0 20 20">
    <g clip-path="url(#clip0_13876_778)">
        <path fill-rule="evenodd" d="M.256.256a.877.877 0 0 1 1.238 0l5.492 5.493-.058.15-.932.37q-.337.136-.61.355L3.022 4.26Q3 4.38 3 4.509v9.894c.28-.1.582-.154.895-.154h9.114l-1.652-1.652c.14-.18.26-.382.347-.604l.399-.952.125-.05 7.516 7.515v.001a.875.875 0 1 1-1.238 1.238l-.7-.699a.9.9 0 0 1-.385.184 39.3 39.3 0 0 1-7.351.768Q9.88 20 9.692 20c-2.086 0-4.18-.167-6.233-.496a2.63 2.63 0 0 1-2.21-2.611V4.509c0-.58.156-1.122.433-1.587L.256 1.495a.88.88 0 0 1 0-1.239m14.37 15.741H3.894a.896.896 0 0 0-.895.895c0 .443.31.814.74.883a37.3 37.3 0 0 0 11.454.066v-1.407l-.442-.442q-.063.004-.127.005" clip-rule="evenodd" />
        <path d="M4.688 1.33a37.7 37.7 0 0 1 10.407.088 3.145 3.145 0 0 1 2.655 3.094v8.361c0 .445-.104.861-.275 1.243L16 12.641V4.51c0-.676-.501-1.263-1.166-1.363a36 36 0 0 0-5.334-.4 36 36 0 0 0-3.23.164z" />
        <path d="M8.693 5.504c.287-.734 1.326-.734 1.613 0l.586 1.498 1.56.661c.333.133.548.451.548.813s-.215.68-.55.813l-1.486.59-.657 1.567a.864.864 0 0 1-1.614.001L8.107 9.95l-1.559-.66a.87.87 0 0 1-.549-.814c0-.362.215-.68.55-.813l1.486-.59.072-.07z" />
    </g>
</svg>
